!!!OTL: The Walking of the Fauld 
!!!id: HA040
**kern
*clefF4
*k[f#c#]
*D:
*M2/2
{4d
=1
8B
8e
8.e
16f#
4e
8.dd}
{16b
=2
8a
8f#
8e
8d
4B}
{8A
8B
=3
8.d
16e
8f#
8e
8d
8B
8A}
{8B
=4
8.d
16e
8f#
8e
8d
8B
8A}
{8d
=5
8B
8e
8e
8f#
4e
8d}
{8e
=6
8.f#
16e
8f#
8a
4.b}
{16dd
16ee
=7
8.ff#
16ee
8dd
8b
8.a
16b
8dd}
{8f#
=8
8e
8d
8B
8d
4.e}
{8dd
=9
8b
8ee
8ee
8ff#
4ee
8dd}
{8ee
=10
8.ff#
16ff#
8ee
8dd
4b}
{8a
8b
=11
8.dd
16ee
8dd
8f#
8d
8e
8f#}
{8d
=12
8.dd
16ee
8dd
8f#
8.d
16e
8f#}
{8d
=13
8e
8ee
8.ee
16ff#
4ee
8dd}
{8cc#
=14
8.b
16a
8b
8dd
4.ee}
{16dd
16ee
=15
8.ff#
16ee
8dd
8b
8a
16b
16cc#
8.dd}
{16f#
=16
8.e
16d
8B
8d
4e}
==
*-
!!!minrhy: 16
!!!meter: 2/2 
!!!cut: The Walking of the Fauld 
!!!key: HA040  16  D 2/2 
!!!bem: Schlu auf A
!!!fog: a--b--c--cv-d--e--f--g--h--i--cw-j--hw-k--fv-gv-
!! Haydn: Volksliedbearbeitungen, Bd1
